X:664
M:C
L:1/8
K:G
g|f<d d>f g<d d>g|=f<c cf/c/ A<F F>g|f<d d>f g<d d>g|f/g/ag>f g<d d>g|
f<d d>f g<d d>g|=f<c cf/c/ A<F F>A|D>G B<G c<AB<G|D>d d/e/d/c/ B<GG||

